_site/static/book/interviews.svg

<svg height="104" viewBox="0 0 152 104" width="152" xmlns="http://www.w3.org/2000/svg"><g fill="none" fill-rule="evenodd"><g fill="#c3acff"><rect height="70.680412" rx="20" stroke="#9000ff" stroke-width="2" width="91" x="1" y="1"/><path d="m15.7499736 74.5861602 11.1734251 10.7948271c.7943911.7674741 1.202497 1.7842821 1.2201365 2.8078194s-.3551873 2.0538038-1.1226614 2.8481949c-.7537185.780153-1.7919729 1.2207304-2.8767447 1.2207304h-8.6158785z" stroke="#9000ff" stroke-width="2" transform="matrix(0 1 -1 0 108.273357 57.242107)"/><path d="m16.7239062 69.5154639 12.6015993 12.1166349c1.5924385 1.5311546 1.642119 4.0633272.1109644 5.6557658-.7541511.7843358-1.7952813 1.2275993-2.8833651 1.2275993h-10.0687298z" transform="matrix(0 1 -1 0 105.499839 52.531089)"/></g><g fill="#9000ff"><rect height="6.783505" rx="3.391753" width="9.6875" x="9.6875" y="10.659794"/><rect height="6.783505" rx="3.391753" width="59.578125" x="24.21875" y="10.659794"/><rect height="6.783505" rx="3.391753" width="59.578125" x="9.6875" y="34.886598"/><rect height="6.783505" rx="3.391753" width="38.265625" x="9.6875" y="47"/><rect height="6.783505" rx="3.391753" width="32.453125" x="53.28125" y="47"/><rect height="6.783505" rx="3.391753" width="23.734375" x="9.6875" y="22.773196"/><rect height="6.783505" rx="3.391753" width="17.4375" x="39.234375" y="22.773196"/><rect height="6.783505" rx="3.391753" width="17.4375" x="62" y="22.773196"/><path d="m19.5 0h36c10.7695526 0 19.5 8.73044738 19.5 19.5v17.5c0 1.1045695-.8954305 2-2 2h-53.5c-10.76955262 0-19.5-8.7304474-19.5-19.5 0-10.76955262 8.73044738-19.5 19.5-19.5z" transform="matrix(-1 0 0 1 150 33)"/></g><rect fill="#cdff88" height="54.058442" rx="20" transform="matrix(-1 0 0 1 154 33)" width="75" x="2"/><path d="m40.8462449 53.9741691 15.4166736 15.0452839c1.1857685 1.1572032 1.2089252 3.056557.0517221 4.2423254-.5645657.5785019-1.3386929.9046984-2.1470238.9046984h-13.5721798z" fill="#cdff88" transform="matrix(0 1 1 0 61.995893 46.004107)"/><g fill="#9000ff"><rect height="6.818182" rx="3.409091" width="27.884615" x="84.692308" y="43.227273"/><rect height="6.818182" rx="3.409091" width="52.884615" x="92.384616" y="54.428572"/><rect height="6.818182" rx="3.409091" width="25" x="120.269231" y="65.62987"/><rect height="6.818182" rx="3.409091" width="27.884615" x="86.615385" y="65.62987"/><rect height="6.818182" rx="3.409091" width="13.942308" x="131.326923" y="43.227273"/><rect height="6.818182" rx="3.409091" width="8.173077" x="117.865385" y="43.227273"/></g></g></svg>

<?xml version="1.0" encoding="UTF-8"?>
<svg width="152px" height="104px" viewBox="0 0 152 104" version="1.1" xmlns="http://www.w3.org/2000/svg" xmlns:xlink="http://www.w3.org/1999/xlink">
    <title>interviews</title>
    <g id="Page-1" stroke="none" stroke-width="1" fill="none" fill-rule="evenodd">
        <g id="interviews">
            <g id="Purple-Bubble">
                <g id="Left-Chat-Bubble-Back" fill="#C3ACFF">
                    <rect id="Rectangle" stroke="#9000FF" stroke-width="2" x="1" y="1" width="91" height="70.6804124" rx="20"></rect>
                    <path d="M15.7499736,74.5861602 L26.9233987,85.3809873 C27.7177898,86.1484614 28.1258957,87.1652694 28.1435352,88.1888067 C28.1611747,89.212344 27.7883479,90.2426105 27.0208738,91.0370016 C26.2671553,91.8171546 25.2289009,92.257732 24.1441291,92.257732 L24.1441291,92.257732 L15.5282506,92.257732 L15.7499736,74.5861602 Z" id="Triangle" stroke="#9000FF" stroke-width="2" transform="translate(25.515625, 82.757732) rotate(-270.000000) translate(-25.515625, -82.757732) "></path>
                    <path d="M16.7239062,69.5154639 L29.3255055,81.6320988 C30.917944,83.1632534 30.9676245,85.695426 29.4364699,87.2878646 C28.6823188,88.0722004 27.6411886,88.5154639 26.5531048,88.5154639 L16.484375,88.5154639 L16.484375,88.5154639 L16.7239062,69.5154639 Z" id="Triangle-Copy-2" transform="translate(26.484375, 79.015464) rotate(-270.000000) translate(-26.484375, -79.015464) "></path>
                </g>
                <rect id="Rectangle" fill="#9000FF" x="9.6875" y="10.6597938" width="9.6875" height="6.78350515" rx="3.39175258"></rect>
                <rect id="Rectangle-Copy-4" fill="#9000FF" x="24.21875" y="10.6597938" width="59.578125" height="6.78350515" rx="3.39175258"></rect>
                <rect id="Rectangle-Copy-11" fill="#9000FF" x="9.6875" y="34.8865979" width="59.578125" height="6.78350515" rx="3.39175258"></rect>
                <rect id="Rectangle-Copy-12" fill="#9000FF" x="9.6875" y="47" width="38.265625" height="6.78350515" rx="3.39175258"></rect>
                <rect id="Rectangle-Copy-13" fill="#9000FF" x="53.28125" y="47" width="32.453125" height="6.78350515" rx="3.39175258"></rect>
                <rect id="Rectangle-Copy-5" fill="#9000FF" x="9.6875" y="22.7731959" width="23.734375" height="6.78350515" rx="3.39175258"></rect>
                <rect id="Rectangle-Copy-6" fill="#9000FF" x="39.234375" y="22.7731959" width="17.4375" height="6.78350515" rx="3.39175258"></rect>
                <rect id="Rectangle-Copy-7" fill="#9000FF" x="62" y="22.7731959" width="17.4375" height="6.78350515" rx="3.39175258"></rect>
            </g>
            <g id="Green-Bubble" transform="translate(75.000000, 33.000000)">
                <g id="Green-Bubble-Back">
                    <path d="M19.5,0 L55.5,0 C66.2695526,-1.97833472e-15 75,8.73044738 75,19.5 L75,37 C75,38.1045695 74.1045695,39 73,39 L19.5,39 C8.73044738,39 1.31888981e-15,30.2695526 0,19.5 C-1.31888981e-15,8.73044738 8.73044738,1.97833472e-15 19.5,0 Z" id="Rectangle-Copy-31" fill="#9000FF" transform="translate(37.500000, 19.500000) scale(-1, 1) translate(-37.500000, -19.500000) "></path>
                    <rect id="Rectangle-Copy-2" fill="#CDFF88" transform="translate(39.500000, 27.029221) scale(-1, 1) translate(-39.500000, -27.029221) " x="2" y="0" width="75" height="54.0584416" rx="20"></rect>
                    <path d="M40.8462449,53.9741691 L56.2629185,69.019453 C57.448687,70.1766562 57.4718437,72.07601 56.3146406,73.2617784 C55.7500749,73.8402803 54.9759477,74.1664768 54.1676168,74.1664768 L40.595437,74.1664768 L40.595437,74.1664768 L40.8462449,53.9741691 Z" id="Triangle-Copy" fill="#CDFF88" transform="translate(51.066216, 64.070323) scale(-1, 1) rotate(-270.000000) translate(-51.066216, -64.070323) "></path>
                </g>
                <g id="Green-Bubble-Convo" transform="translate(9.692308, 10.227273)" fill="#9000FF">
                    <rect id="Rectangle-Copy-8" x="0" y="0" width="27.8846154" height="6.81818182" rx="3.40909091"></rect>
                    <rect id="Rectangle-Copy-14" x="7.69230769" y="11.2012987" width="52.8846154" height="6.81818182" rx="3.40909091"></rect>
                    <rect id="Rectangle-Copy-27" x="35.5769231" y="22.4025974" width="25" height="6.81818182" rx="3.40909091"></rect>
                    <rect id="Rectangle-Copy-30" x="1.92307692" y="22.4025974" width="27.8846154" height="6.81818182" rx="3.40909091"></rect>
                    <rect id="Rectangle-Copy-9" x="46.6346154" y="0" width="13.9423077" height="6.81818182" rx="3.40909091"></rect>
                    <rect id="Rectangle-Copy-10" x="33.1730769" y="0" width="8.17307692" height="6.81818182" rx="3.40909091"></rect>
                </g>
            </g>
        </g>
    </g>
</svg>
